res/icons/arch-update-light.svg

<?xml version="1.0" encoding="UTF-8" standalone="no"?>
<svg
   id="svg2424"
   viewBox="0 0 166.16002 166.19"
   version="1.1"
   xml:space="preserve"
   width="166.16002"
   height="166.19"
   xmlns="http://www.w3.org/2000/svg"
   xmlns:svg="http://www.w3.org/2000/svg"><defs
     id="defs1"><style
       id="style1">
      .cls-1 {
        fill: #1793d1;
      }

      .cls-1, .cls-2 {
        stroke-width: 0px;
      }

      .cls-2 {
        fill: #f93a30;
      }
    </style></defs><path
     id="path62"
     style="fill:#dfdfdf;fill-opacity:1"
     d="m 83.060547,0 c -7.4,18.14 -11.859844,29.999844 -20.089844,47.589844 5.05,5.35 11.248594,11.591094 21.308594,18.621094 -10.82,-4.450001 -18.19875,-8.920547 -23.71875,-13.560547 C 50.020547,74.640391 33.51002,105.96969 0,166.17969 c 26.34002,-15.21 46.749297,-24.58016 65.779297,-28.16016 -0.82,-3.51 -1.28,-7.3193 -1.25,-11.2793 l 0.03125,-0.83984 c 0.42,-16.87 9.199844,-29.850702 19.589844,-28.970702 1.63,0.14 3.209218,0.611093 4.699218,1.371093 7.22,-10.05 18.721011,-16.760859 31.791011,-17.380859 l 0.01,0.0098 C 99.500391,40.039687 94.630547,27.15 83.060547,0 Z m 39.898433,87.039062 c -6.5965,0 -12.6792,1.625954 -18.25,4.876954 -5.570796,3.251 -9.981517,7.661722 -13.232418,13.232424 -3.2509,5.5708 -4.876953,11.65545 -4.876953,18.25195 0,6.5965 1.626054,12.6792 4.876953,18.25 3.250901,5.5707 7.661622,9.98142 13.232418,13.23242 5.5708,3.251 11.6535,4.87696 18.25,4.87696 6.5966,0 12.68116,-1.62596 18.25196,-4.87696 5.5707,-3.251 9.98152,-7.66172 13.23242,-13.23242 3.251,-5.5708 4.87695,-11.6535 4.87695,-18.25 0,-6.5965 -1.62595,-12.68115 -4.87695,-18.25195 -3.2509,-5.570703 -7.66172,-9.981424 -13.23242,-13.232424 -5.5708,-3.251 -11.65536,-4.876953 -18.25196,-4.876954 z m 19.05664,17.468748 c 0.93581,0 1.73162,0.32732 2.38672,0.98242 l 4.77149,4.77149 c 0.655,0.6549 0.98242,1.45082 0.98242,2.38672 0,0.9359 -0.32742,1.73152 -0.98242,2.38672 l -25.40821,25.4082 -4.77148,4.77148 c -0.6551,0.6552 -1.45092,0.98438 -2.38672,0.98438 -0.9359,0 -1.73172,-0.32918 -2.38672,-0.98438 l -4.77148,-4.77148 -12.705079,-12.70508 c -0.6551,-0.6549 -0.982422,-1.44886 -0.982422,-2.38476 0,-0.9359 0.327322,-1.73152 0.982422,-2.38672 l 4.773439,-4.77344 c 0.6551,-0.6549 1.45082,-0.98242 2.38672,-0.98242 0.9358,0 1.72966,0.32752 2.38476,0.98242 l 10.31836,10.35352 23.02149,-23.05665 c 0.655,-0.6551 1.45081,-0.98242 2.38671,-0.98242 z m 14.31446,43.50196 c -2.27,3.14 -4.97024,5.94007 -7.99024,8.33007 v 0.01 c 5.65,2.96 11.56032,6.22984 17.82032,9.83984 -3.5,-6.44 -6.73008,-12.42968 -9.83008,-18.17968 z" /></svg>

<?xml version="1.0" encoding="UTF-8" standalone="no"?>
<svg id="svg2424" xmlns="http://www.w3.org/2000/svg" viewBox="0 0 166.16 166.19">
  <path id="path62" style="fill:#dfdfdf"
    d="M 83.060547 0 C 75.660547 18.14 71.200703 29.999844 62.970703 47.589844 C 68.020703 52.939844 74.219297 59.180938 84.279297 66.210938 C 73.459297 61.760937 66.080547 57.290391 60.560547 52.650391 C 50.020547 74.640391 33.51002 105.96969 0 166.17969 C 26.34002 150.96969 46.749297 141.59953 65.779297 138.01953 C 64.959297 134.50953 64.499297 130.70023 64.529297 126.74023 L 64.560547 125.90039 C 64.980547 109.03039 73.760391 96.049688 84.150391 96.929688 C 85.780391 97.069688 87.359609 97.540781 88.849609 98.300781 C 96.069609 88.250781 107.57062 81.539922 120.64062 80.919922 L 120.65039 80.929688 C 99.500391 40.039687 94.630547 27.15 83.060547 0 z M 122.95898 87.039062 C 116.36248 87.039062 110.27978 88.665016 104.70898 91.916016 C 99.138184 95.167016 94.727463 99.577738 91.476562 105.14844 C 88.225662 110.71924 86.599609 116.80389 86.599609 123.40039 C 86.599609 129.99689 88.225663 136.07959 91.476562 141.65039 C 94.727463 147.22109 99.138184 151.63181 104.70898 154.88281 C 110.27978 158.13381 116.36248 159.75977 122.95898 159.75977 C 129.55558 159.75977 135.64014 158.13381 141.21094 154.88281 C 146.78164 151.63181 151.19246 147.22109 154.44336 141.65039 C 157.69436 136.07959 159.32031 129.99689 159.32031 123.40039 C 159.32031 116.80389 157.69436 110.71924 154.44336 105.14844 C 151.19246 99.577737 146.78164 95.167016 141.21094 91.916016 C 135.64014 88.665016 129.55558 87.039063 122.95898 87.039062 z M 142.01562 104.50781 C 142.95143 104.50781 143.74724 104.83513 144.40234 105.49023 L 149.17383 110.26172 C 149.82883 110.91662 150.15625 111.71254 150.15625 112.64844 C 150.15625 113.58434 149.82883 114.37996 149.17383 115.03516 L 123.76562 140.44336 L 118.99414 145.21484 C 118.33904 145.87004 117.54322 146.19922 116.60742 146.19922 C 115.67152 146.19922 114.8757 145.87004 114.2207 145.21484 L 109.44922 140.44336 L 96.744141 127.73828 C 96.089041 127.08338 95.761719 126.28942 95.761719 125.35352 C 95.761719 124.41762 96.089041 123.622 96.744141 122.9668 L 101.51758 118.19336 C 102.17268 117.53846 102.9684 117.21094 103.9043 117.21094 C 104.8401 117.21094 105.63396 117.53846 106.28906 118.19336 L 116.60742 128.54688 L 139.62891 105.49023 C 140.28391 104.83513 141.07972 104.50781 142.01562 104.50781 z M 156.33008 148.00977 C 154.06008 151.14977 151.35984 153.94984 148.33984 156.33984 L 148.33984 156.34961 C 153.98984 159.30961 159.90016 162.57945 166.16016 166.18945 C 162.66016 159.74945 159.43008 153.75977 156.33008 148.00977 z " />
</svg>
